proprietary/assets/icons/gebouwen/overstroming-dreiging-1.svg

<svg height="64" viewBox="0 0 64 64" width="64" xmlns="http://www.w3.org/2000/svg"><path d="m0 0h64v64h-64z" fill="none"/><path d="m8 34h4v17.2988c1.0001.6515 3.7699 2.6719 6.2861 2.6719 2.5491 0 5.3216-2.0464 6.8569-3.0547.085.0546 1.7718 1.1626 1.8569 1.2185v-12.1345h10v12.1377l1.8604-1.208c1.3958.8973 4.2365 3.041 6.8535 3.041 2.426 0 5.0436-1.8613 6.2861-2.6682v-17.3025h4c.5522 0 1-.4478 1-1v-1.4816c0-.559-.2344-1.0927-.646-1.4716l-23.6767-21.7828c-.3828-.352-.9716-.352-1.3544 0l-23.6768 21.7828c-.4116.3789-.646.9126-.646 1.4716v1.4816c0 .5522.4478 1 1 1z"/><path d="m59.4282 56.07c-2.531 0-4.9503-1.3942-6.856-2.6357-1.9217 1.2474-4.3122 2.6357-6.8584 2.6357-2.531 0-4.9498-1.3942-6.8555-2.6357-1.9216 1.2474-4.3121 2.6357-6.8583 2.6357-2.5021 0-4.9015-1.3581-6.8569-2.6426-1.9785 1.2996-4.3679 2.6426-6.8569 2.6426-2.531 0-4.9498-1.3942-6.8555-2.6357-1.9293 1.2523-4.3173 2.6357-6.8589 2.6357-1.2473 0-2.5317-.3867-3.5718-.813v4.1675c1.1038.3346 2.3297.5755 3.5718.5755 2.7476 0 5.415-1.1777 6.8574-1.9424 1.4419.7647 4.1094 1.9424 6.8569 1.9424 2.7471 0 5.415-1.1777 6.8569-1.9424 1.442.7647 4.1094 1.9424 6.857 1.9424s5.415-1.1777 6.8569-1.9424c1.4419.7647 4.1099 1.9424 6.857 1.9424 2.7476 0 5.415-1.1777 6.8569-1.9424 1.4424.7647 4.1099 1.9424 6.8574 1.9424 1.2421 0 2.468-.2409 3.5718-.5755v-4.1701c-1.0424.4273-2.3286.8156-3.5718.8156z"/></svg>

<?xml version="1.0" encoding="utf-8"?>
<!-- Generator: Adobe Illustrator 18.1.0, SVG Export Plug-In . SVG Version: 6.00 Build 0)  -->
<svg version="1.2" baseProfile="tiny" xmlns="http://www.w3.org/2000/svg" xmlns:xlink="http://www.w3.org/1999/xlink" x="0px"
	 y="0px" width="64px" height="64px" viewBox="0 0 64 64" xml:space="preserve">
<g id="_x36_4px_Box">
	<rect fill="none" width="64" height="64"/>
</g>
<g id="Label">
</g>
<g id="Production">
	<g>
		<path d="M8,34h4v17.2988c1.0001,0.6515,3.7699,2.6719,6.2861,2.6719c2.5491,0,5.3216-2.0464,6.8569-3.0547
			c0.085,0.0546,1.7718,1.1626,1.8569,1.2185V40h10v12.1377l1.8604-1.208c1.3958,0.8973,4.2365,3.041,6.8535,3.041
			c2.426,0,5.0436-1.8613,6.2861-2.6682V34h4c0.5522,0,1-0.4478,1-1v-1.4816c0-0.559-0.2344-1.0927-0.646-1.4716L32.6772,8.264
			c-0.3828-0.352-0.9716-0.352-1.3544,0L7.646,30.0468C7.2344,30.4257,7,30.9594,7,31.5184V33C7,33.5522,7.4478,34,8,34z"/>
		<path d="M59.4282,56.07c-2.531,0-4.9503-1.3942-6.856-2.6357c-1.9217,1.2474-4.3122,2.6357-6.8584,2.6357
			c-2.531,0-4.9498-1.3942-6.8555-2.6357C36.9367,54.6817,34.5462,56.07,32,56.07c-2.5021,0-4.9015-1.3581-6.8569-2.6426
			c-1.9785,1.2996-4.3679,2.6426-6.8569,2.6426c-2.531,0-4.9498-1.3942-6.8555-2.6357C9.5014,54.6866,7.1134,56.07,4.5718,56.07
			c-1.2473,0-2.5317-0.3867-3.5718-0.813v4.1675C2.1038,59.7591,3.3297,60,4.5718,60c2.7476,0,5.415-1.1777,6.8574-1.9424
			C12.8711,58.8223,15.5386,60,18.2861,60c2.7471,0,5.415-1.1777,6.8569-1.9424C26.585,58.8223,29.2524,60,32,60
			s5.415-1.1777,6.8569-1.9424C40.2988,58.8223,42.9668,60,45.7139,60c2.7476,0,5.415-1.1777,6.8569-1.9424
			C54.0132,58.8223,56.6807,60,59.4282,60c1.2421,0,2.468-0.2409,3.5718-0.5755v-4.1701
			C61.9576,55.6817,60.6714,56.07,59.4282,56.07z"/>
	</g>
</g>
</svg>
